usr/share/icons/biglinux-icons-material/16/actions/flag.svg

<svg xmlns="http://www.w3.org/2000/svg" viewBox="0 0 16 16"><path d="M2 2v12h1V9l5-1v1l6-1-2-1 2-1-6-2V3L3 2H2z" style="fill:currentColor;fill-opacity:1;stroke:none;color:#dedede"/></svg>

<svg xmlns="http://www.w3.org/2000/svg" viewBox="0 0 16 16">
  <defs id="defs3051">
    <style type="text/css" id="current-color-scheme">
      .ColorScheme-Text {
        color:#dedede;
      }
      </style>
  </defs>
 <path style="fill:currentColor;fill-opacity:1;stroke:none" 
     d="M 2 2 L 2 14 L 3 14 L 3 9 L 8 8 L 8 9 L 14 8 L 12 7 L 14 6 L 8 4 L 8 3 L 3 2 L 2 2 z "
     class="ColorScheme-Text"
     />
</svg>
